icons/file-media-24.svg

<svg width="24" height="24" viewBox="0 0 24 24" xmlns="http://www.w3.org/2000/svg">
  <path fill-rule="evenodd" clip-rule="evenodd" d="M2.25 4C2.11193 4 2 4.11193 2 4.25V19.75C2 19.8881 2.11193 20 2.25 20H5.42803L13.9996 10.9773C14.6774 10.2638 15.81 10.2493 16.5058 10.9452L22 16.4393V4.25C22 4.11193 21.8881 4 21.75 4H2.25ZM5.74568 21.5H5.75408H21.75C22.7165 21.5 23.5 20.7165 23.5 19.75V18.2517V18.2483V4.25C23.5 3.2835 22.7165 2.5 21.75 2.5H2.25C1.2835 2.5 0.5 3.2835 0.5 4.25V19.75C0.5 20.7165 1.2835 21.5 2.25 21.5H5.74568ZM22 19.75V18.5607L15.4451 12.0058C15.3457 11.9064 15.1839 11.9085 15.0871 12.0104L7.497 20H21.75C21.8881 20 22 19.8881 22 19.75ZM9 9.25C9 10.2165 8.2165 11 7.25 11C6.2835 11 5.5 10.2165 5.5 9.25C5.5 8.2835 6.2835 7.5 7.25 7.5C8.2165 7.5 9 8.2835 9 9.25ZM10.5 9.25C10.5 11.0449 9.04493 12.5 7.25 12.5C5.45507 12.5 4 11.0449 4 9.25C4 7.45507 5.45507 6 7.25 6C9.04493 6 10.5 7.45507 10.5 9.25Z"/>
</svg>

<svg xmlns="http://www.w3.org/2000/svg" width="24" height="24" viewBox="0 0 24 24"><path fill-rule="evenodd" d="M2.25 4a.25.25 0 00-.25.25v15.5c0 .138.112.25.25.25h3.178L14 10.977a1.75 1.75 0 012.506-.032L22 16.44V4.25a.25.25 0 00-.25-.25H2.25zm3.496 17.5H21.75a1.75 1.75 0 001.75-1.75V4.25a1.75 1.75 0 00-1.75-1.75H2.25A1.75 1.75 0 00.5 4.25v15.5c0 .966.784 1.75 1.75 1.75h3.496zM22 19.75v-1.19l-6.555-6.554a.25.25 0 00-.358.004L7.497 20H21.75a.25.25 0 00.25-.25zM9 9.25a1.75 1.75 0 11-3.5 0 1.75 1.75 0 013.5 0zm1.5 0a3.25 3.25 0 11-6.5 0 3.25 3.25 0 016.5 0z"/></svg>
